trunk/public/assets/images/icons/yellow/pause/infopage2.svg

<svg width="16" height="16" xmlns="http://www.w3.org/2000/svg" viewBox="0 0 16 16" shape-rendering="geometricPrecision" fill="#ffad00"><defs><mask id="a"><rect fill="#fff" width="100%" height="100%"/><path fill="#000" d="M13.135-1H9.585v7.956H16V-1z"/></mask></defs><g fill="#cb1800"><path d="M10.585 0h1.55v5.956h-1.55zM13.45 0H15v5.956h-1.55z"/></g><path d="M1.81 0v16h12.38V0H1.81zm6.22 1.245c.86 0 1.552.695 1.552 1.55s-.692 1.55-1.552 1.55c-.854 0-1.55-.695-1.55-1.55s.695-1.55 1.55-1.55zm3.055 13.548h-6.17V13.26H6.44V7.082H4.92v-1.15h4.64v7.328h1.525v1.533z" mask="url(#a)"/></svg>

<?xml version="1.0"?><!DOCTYPE svg PUBLIC "-//W3C//DTD SVG 1.1//EN" "http://www.w3.org/Graphics/SVG/1.1/DTD/svg11.dtd"><svg width="16px" height="16px" xmlns="http://www.w3.org/2000/svg" viewBox="0 0 16 16" shape-rendering="geometricPrecision" fill="#ffad00"><defs><mask id="pause-path"><rect fill="#fff" width="100%" height="100%"/><polygon points="13.135,-1 12.45,-1 9.585,-1 9.585,6.956 12.45,6.956 13.135,6.956 16,6.956 16,-1 " fill="#000"/></mask></defs><g fill="#cb1800"><g><rect x="10.585" y="0" width="1.55" height="5.956"/></g><g><rect x="13.45" y="0" width="1.55" height="5.956"/></g></g><g mask="url(#pause-path)"><g><g><g><path d="M1.811-0.001v16h12.378v-16H1.811z M8.03,1.245c0.859,0,1.552,0.695,1.552,1.55s-0.692,1.55-1.552,1.55 c-0.854,0-1.549-0.695-1.549-1.55S7.175,1.245,8.03,1.245z M11.085,14.793H4.915V13.26h1.526V7.082H4.919V5.931h4.64v7.329 h1.526V14.793z"/></g></g></g></g></svg>
